X: 313
T:Patter On Pitter On. JaW.312
M:2/4
Q:50
S:James Winder Ms, Lancashire, 1835-41
R:March
O:England
A:Wyresdale,Lancashire
H:1/8
Z:vmp.Chris Partington, Aug 2004
K:C
G|cedc|BAGE|AzBz|c/B/c/d/ cG|!
cedc|BAGE|AzBz|c3:|!
|:E|GG/G/ GG|d/e/f/e/ d/c/B/A/|GG/G/ GG|d/e/f/d/ eG|!
cc/c/ cc|cccG|AcBA|Gzcz|dzB2|c3:|]
